images/suggestededits/leveling-up-ltr.svg

<svg width="360" height="128" viewBox="0 0 360 128" fill="none" xmlns="http://www.w3.org/2000/svg">
<rect width="360" height="128" fill="white"/>
<mask id="mask0_2_2005" style="mask-type:alpha" maskUnits="userSpaceOnUse" x="0" y="0" width="360" height="128">
<rect width="360" height="128" fill="white"/>
</mask>
<g mask="url(#mask0_2_2005)">
<path d="M152 43.4026C150.895 43.4026 150 44.298 150 45.4026L150 62.4703C150 63.4234 150.914 64.3422 151.6 63.6804V63.6804C152.92 62.0489 154.939 61.0058 157.201 61.0058C161.178 61.0058 164.402 64.2299 164.402 68.2071C164.402 72.1842 161.178 75.4084 157.201 75.4084C155.02 75.4084 153.066 74.4389 151.745 72.9074C151.647 72.7938 151.528 72.6845 151.401 72.6055V72.6055C150.706 72.1743 150 72.8793 150 73.6972L150 91.0115C150 92.1161 150.895 93.0115 152 93.0115L169.068 93.0115C170.021 93.0115 170.939 92.0971 170.278 91.4112V91.4112C168.646 90.091 167.603 88.0725 167.603 85.8102C167.603 81.8331 170.827 78.6089 174.804 78.6089C178.782 78.6089 182.006 81.8331 182.006 85.8102C182.006 87.9911 181.036 89.9456 179.505 91.2662C179.391 91.3641 179.282 91.4833 179.203 91.6107V91.6107C178.772 92.3056 179.477 93.0115 180.294 93.0115L197.609 93.0115C198.713 93.0115 199.609 92.1161 199.609 91.0115L199.609 73.6972C199.609 72.8793 200.315 72.1743 201.01 72.6055V72.6055C201.137 72.6845 201.256 72.7938 201.354 72.9074C202.675 74.4389 204.629 75.4084 206.81 75.4084C210.787 75.4084 214.011 72.1842 214.011 68.2071C214.011 64.2299 210.787 61.0058 206.81 61.0058C204.548 61.0058 202.529 62.0489 201.209 63.6804V63.6804C200.523 64.3422 199.609 63.4234 199.609 62.4703L199.609 45.4026C199.609 44.298 198.713 43.4026 197.609 43.4026L180.294 43.4026C179.477 43.4026 178.772 42.6967 179.203 42.0017V42.0017C179.282 41.8743 179.391 41.7552 179.505 41.6573C181.036 40.3367 182.006 38.3822 182.006 36.2013C182.006 32.2241 178.782 29 174.804 29C170.827 29 167.603 32.2241 167.603 36.2013C167.603 38.4635 168.646 40.4821 170.278 41.8023V41.8023C170.939 42.4882 170.021 43.4026 169.068 43.4026L152 43.4026Z" fill="#FFCD70"/>
<path fill-rule="evenodd" clip-rule="evenodd" d="M178.761 59.3746H182.44V72.621H178.761V59.3746ZM179.497 60.1105H181.704V71.8851H179.497V60.1105ZM174.345 63.7901H178.025V72.621H174.345V63.7901ZM169.194 68.2055H173.609V72.621H169.194V68.2055Z" fill="#AC6600"/>
<path fill-rule="evenodd" clip-rule="evenodd" d="M198.562 153.482L197.747 104.862C197.747 104.862 205.677 90.458 205.824 89.1945C205.97 87.931 207.254 80.8261 207.769 79.1954C208.284 77.5648 209.282 75.9046 207.225 75.9954C205.168 76.0863 201.875 84.7784 201.875 84.7784C201.875 84.7784 203.699 77.6441 203.614 75.2736C203.529 72.9032 202.616 69.0253 202.616 69.0253C202.616 69.0253 201.338 66.3296 199.811 67.6152C198.283 68.9008 200.336 73.8894 199.714 76.1465C199.092 78.4036 198.447 80.9711 198.447 80.9711C198.447 80.9711 198.359 73.0695 197.759 70.9258C197.159 68.7822 195.618 67.7604 194.471 68.7258C193.324 69.6912 194.627 74.4396 194.648 77.0141C194.669 79.5886 194.051 81.918 194.051 81.918C194.051 81.918 193.883 78.0433 191.718 75.4547C189.552 72.866 187.081 69.6763 187.081 69.6763C187.081 69.6763 185.202 68.622 184.29 70.2497C183.378 71.8774 184.897 73.3241 186.847 76.6599C188.797 79.9957 189.334 81.5143 189.793 84.6917C190.251 87.869 188.475 91.0135 188.475 91.0135C188.475 91.0135 183.678 90.7618 182.249 87.6944C180.82 84.627 180.822 83.5203 180.822 83.5203C180.822 83.5203 180.886 82.0291 180.344 81.0028C180.344 81.0028 180.064 80.3512 178.951 79.5161C177.837 78.681 176.445 78.4026 176.445 78.4026C175.069 79.143 174.925 81.7256 175.081 83.866C175.237 86.0065 177.05 95.8403 181.336 100.963C185.621 106.085 186.324 107.851 186.324 107.851L184.29 153.482" fill="#E0BA9A"/>
<path d="M269.966 14.9512L289.274 9.04283L295.165 28.2941C295.921 28.046 296.225 27.85 296.502 27.3529C297.265 25.4682 298.843 23.9296 300.942 23.2871C304.634 22.1576 308.539 24.2254 309.665 27.9058C310.791 31.5862 308.712 35.4854 305.021 36.6149C302.921 37.2574 300.753 36.8654 299.065 35.7306C298.476 35.5582 298.136 35.4974 297.431 35.6984L303.322 54.9496C283.293 61.0786 278.278 62.6132 257.28 69.0388L251.389 49.7876C252.094 49.5867 252.435 49.6474 253.023 49.8198C254.711 50.9546 256.88 51.3466 258.979 50.7041C262.67 49.5746 264.75 45.6754 263.623 41.995C262.497 38.3146 258.592 36.2468 254.901 37.3763C252.801 38.0188 251.223 39.5574 250.46 41.4421C250.183 41.9392 249.88 42.1352 249.124 42.3833L243.232 23.132L262.54 17.2237C262.741 17.9265 262.679 18.2662 262.505 18.8539C261.365 20.5389 260.968 22.7031 261.609 24.7965C262.735 28.4769 266.641 30.5447 270.332 29.4152C274.023 28.2857 276.102 24.3865 274.976 20.7061C274.335 18.6127 272.796 17.041 270.908 16.2827C270.41 16.0075 270.214 15.705 269.966 14.9512Z" fill="#ECB5B5"/>
<path fill-rule="evenodd" clip-rule="evenodd" d="M279.391 32.5728L276.001 33.5571L279.544 45.7611L282.934 44.7768L279.391 32.5728ZM273.114 38.8063L276.504 37.822L278.866 45.958L275.476 46.9423L273.114 38.8063ZM269.549 44.2524L273.617 43.0712L274.798 47.1391L270.73 48.3203L269.549 44.2524Z" fill="#B32424"/>
<path fill-rule="evenodd" clip-rule="evenodd" d="M270.402 153.589L271.48 84.4802C271.48 84.4802 262.489 71.5187 262.225 70.3275C261.96 69.1362 260.032 62.4833 259.38 60.9781C258.727 59.473 257.61 57.9874 259.582 57.8708C261.554 57.7542 265.556 65.7231 265.556 65.7231C265.556 65.7231 263.11 59.0954 262.957 56.8251C262.803 54.5547 263.292 50.7639 263.292 50.7639C263.292 50.7639 264.245 48.0652 265.83 49.141C267.414 50.2168 265.949 55.1801 266.765 57.2725C267.581 59.3648 268.451 61.7511 268.451 61.7511C268.451 61.7511 267.754 54.2023 268.115 52.0974C268.475 49.9924 269.844 48.8651 271.034 49.673C272.224 50.4808 271.45 55.1408 271.685 57.5996C271.92 60.0584 272.739 62.2201 272.739 62.2201C272.739 62.2201 272.516 58.5062 274.327 55.8219C276.138 53.1375 278.18 49.8496 278.18 49.8496C278.18 49.8496 279.869 48.6577 280.901 50.1208C281.932 51.5838 280.625 53.1145 279.094 56.4905C277.563 59.8664 277.201 61.3687 277.077 64.446C276.954 67.5233 278.959 70.3484 278.959 70.3484C278.959 70.3484 283.512 69.634 284.572 66.5657C285.633 63.4974 285.521 62.4415 285.521 62.4415C285.521 62.4415 285.356 61.513 285.772 60.4801C285.772 60.4801 287.109 60.1271 288.243 59.7741C289.378 59.4211 290.714 59.0681 290.714 59.0681C290.714 59.0681 290.971 60.146 291.034 62.204C291.097 64.2619 290.338 73.8251 286.756 79.1369C283.173 84.4487 282.677 86.2025 282.677 86.2025L285.38 152.318" fill="#BE6F41"/>
<path d="M101.883 54.0562C101.717 52.9641 100.697 52.2134 99.6049 52.3794L83.4746 54.831C82.569 54.9686 81.828 55.9701 82.5557 56.5265V56.5265C84.2957 57.5455 85.5779 59.3131 85.9047 61.4628C86.4791 65.2421 83.8828 68.7712 80.1057 69.3453C76.3286 69.9194 72.801 67.321 72.2266 63.5417C71.9116 61.4693 72.55 59.4721 73.8138 57.9962C73.9075 57.8867 73.9941 57.7577 74.0507 57.6252V57.6252C74.3599 56.9025 73.5881 56.3336 72.8109 56.4517L56.4462 58.9389C55.3542 59.1049 54.6035 60.1247 54.7695 61.2167L57.2586 77.5938C57.3766 78.3705 56.8079 79.142 56.0857 78.8326V78.8326C55.9533 78.7759 55.8244 78.6892 55.715 78.5955C54.2397 77.3308 52.2435 76.6916 50.1723 77.0064C46.3952 77.5805 43.7989 81.1096 44.3733 84.8889C44.9477 88.6682 48.4753 91.2666 52.2524 90.6925C54.4008 90.366 56.1672 89.0834 57.1853 87.3425V87.3425C57.741 86.6148 58.7422 87.3554 58.8798 88.2606L61.3332 104.403C61.4992 105.495 62.5193 106.246 63.6114 106.08C82.7492 103.171 88.5353 102.292 106.768 99.5209C107.86 99.3549 108.612 98.3348 108.447 97.2427L105.957 80.8657C105.839 80.0889 106.408 79.3175 107.13 79.6269V79.6269C107.263 79.6836 107.392 79.7702 107.501 79.864C108.976 81.1287 110.972 81.7679 113.044 81.4531C116.821 80.879 119.417 77.3499 118.843 73.5706C118.268 69.7913 114.741 67.1929 110.964 67.7669C108.815 68.0935 107.049 69.3761 106.031 71.117V71.117C105.475 71.8447 104.474 71.1041 104.336 70.1989L101.883 54.0562Z" fill="#A3ECDC"/>
<path fill-rule="evenodd" clip-rule="evenodd" d="M84.3781 73.6578L88.3 73.0247L90.5791 87.1436L86.6572 87.7766L84.3781 73.6578ZM85.2891 74.3155L87.6423 73.9357L89.6681 86.4858L87.3149 86.8656L85.2891 74.3155ZM84.3534 78.4907L80.4315 79.1237L81.9509 88.5363L85.8728 87.9032L84.3534 78.4907ZM83.6956 79.4017L81.3425 79.7815L82.6086 87.6253L84.9618 87.2455L83.6956 79.4017ZM75.7005 84.7163L80.4068 83.9566L81.1665 88.6629L76.4602 89.4226L75.7005 84.7163Z" fill="#14866D"/>
<path fill-rule="evenodd" clip-rule="evenodd" d="M71.9039 157.893L68.9364 119.018C68.9364 119.018 59.3045 106.538 58.98 105.363C58.6555 104.187 56.3934 97.6453 55.6653 96.1762C54.9373 94.7072 53.7476 93.2812 55.7097 93.0646C57.6719 92.848 62.0704 100.598 62.0704 100.598C62.0704 100.598 59.293 94.1076 59.0246 91.8495C58.7561 89.5913 59.0512 85.7831 59.0512 85.7831C59.0512 85.7831 59.865 83.0412 61.5012 84.0344C63.1374 85.0276 61.9271 90.0557 62.8481 92.1025C63.769 94.1493 64.7585 96.4867 64.7585 96.4867C64.7585 96.4867 63.6791 88.988 63.932 86.8689C64.1849 84.7498 65.4942 83.555 66.7229 84.3009C67.9516 85.0467 67.4159 89.7369 67.7752 92.179C68.1344 94.621 69.0623 96.7369 69.0623 96.7369C69.0623 96.7369 68.6509 93.0415 70.3216 90.2704C71.9922 87.4993 73.8639 84.114 73.8639 84.114C73.8639 84.114 75.4892 82.8386 76.5926 84.2464C77.696 85.6543 76.4697 87.2484 75.1132 90.6956C73.7566 94.1427 73.4714 95.6604 73.5045 98.738C73.5377 101.816 75.6832 104.533 75.6832 104.533C76.6829 104.324 77.6808 103.977 78.6286 103.635C78.6286 103.635 82.4139 103.06 83.5072 102.894C84.7894 103.677 85.1604 106.311 83.9107 112.908C80.6048 118.392 80.1988 120.168 80.1988 120.168L86.4155 154.87" fill="#D7A57A"/>
</g>
</svg>

<svg xmlns="http://www.w3.org/2000/svg" width="360" height="128" fill="none" viewBox="0 0 360 128">
	<path fill="#fff" d="M0 0h360v128H0z"/>
	<mask id="mask0_2_2005" width="360" height="128" x="0" y="0" maskUnits="userSpaceOnUse" style="mask-type:alpha">
		<path fill="#fff" d="M0 0h360v128H0z"/>
	</mask>
	<g mask="url(#mask0_2_2005)">
		<path fill="#FFCD70" d="M152 43.403a2 2 0 0 0-2 2V62.47c0 .953.914 1.872 1.6 1.21a7.201 7.201 0 1 1 .145 9.227 1.556 1.556 0 0 0-.344-.301c-.695-.432-1.401.273-1.401 1.091v17.314a2 2 0 0 0 2 2h17.068c.953 0 1.871-.914 1.21-1.6a7.201 7.201 0 1 1 9.227-.145 1.537 1.537 0 0 0-.302.345c-.431.695.274 1.4 1.091 1.4h17.315a2 2 0 0 0 2-2V73.697c0-.818.706-1.523 1.401-1.091.127.079.246.188.344.301a7.201 7.201 0 1 0-.145-9.227c-.686.662-1.6-.257-1.6-1.21V45.403a2 2 0 0 0-2-2h-17.315c-.817 0-1.522-.706-1.091-1.401.079-.128.188-.247.302-.345a7.201 7.201 0 1 0-9.227.145c.661.686-.257 1.6-1.21 1.6H152Z"/>
		<path fill="#AC6600" fill-rule="evenodd" d="M178.761 59.375h3.679V72.62h-3.679V59.375Zm.736.736h2.207v11.774h-2.207V60.11Zm-5.152 3.68h3.68v8.83h-3.68v-8.83Zm-5.151 4.415h4.415v4.415h-4.415v-4.415Z" clip-rule="evenodd"/>
		<path fill="#E0BA9A" fill-rule="evenodd" d="m198.562 153.482-.815-48.62s7.93-14.404 8.077-15.667c.146-1.264 1.43-8.369 1.945-10 .515-1.63 1.513-3.29-.544-3.2-2.057.091-5.35 8.783-5.35 8.783s1.824-7.134 1.739-9.504c-.085-2.37-.998-6.249-.998-6.249s-1.278-2.695-2.805-1.41c-1.528 1.286.525 6.274-.097 8.532a256.79 256.79 0 0 0-1.267 4.824s-.088-7.901-.688-10.045-2.141-3.166-3.288-2.2c-1.147.965.156 5.714.177 8.288.021 2.575-.597 4.904-.597 4.904s-.168-3.875-2.333-6.463c-2.166-2.589-4.637-5.779-4.637-5.779s-1.879-1.054-2.791.574c-.912 1.627.607 3.074 2.557 6.41 1.95 3.336 2.487 4.854 2.946 8.032.458 3.177-1.318 6.322-1.318 6.322s-4.797-.252-6.226-3.32c-1.429-3.067-1.427-4.174-1.427-4.174s.064-1.49-.478-2.517c0 0-.28-.652-1.393-1.487-1.114-.835-2.506-1.113-2.506-1.113-1.376.74-1.52 3.323-1.364 5.463.156 2.14 1.969 11.974 6.255 17.097 4.285 5.122 4.988 6.888 4.988 6.888l-2.034 45.631" clip-rule="evenodd"/>
		<path fill="#ECB5B5" d="m269.966 14.951 19.308-5.908 5.891 19.251c.756-.248 1.06-.444 1.337-.941a6.983 6.983 0 0 1 4.44-4.066c3.692-1.13 7.597.938 8.723 4.619 1.126 3.68-.953 7.58-4.644 8.709-2.1.642-4.268.25-5.956-.884-.589-.173-.929-.234-1.634-.033l5.891 19.252-46.042 14.089-5.891-19.251c.705-.201 1.046-.14 1.634.032a6.985 6.985 0 0 0 5.956.884c3.691-1.13 5.771-5.029 4.644-8.709-1.126-3.68-5.031-5.748-8.722-4.619a6.982 6.982 0 0 0-4.441 4.066c-.277.497-.58.693-1.336.941l-5.892-19.251 19.308-5.908c.201.703.139 1.042-.035 1.63a6.948 6.948 0 0 0-.896 5.943c1.126 3.68 5.032 5.748 8.723 4.618 3.691-1.13 5.77-5.028 4.644-8.709a6.948 6.948 0 0 0-4.068-4.423c-.498-.276-.694-.578-.942-1.332Z"/>
		<path fill="#B32424" fill-rule="evenodd" d="m279.391 32.573-3.39.984 3.543 12.204 3.39-.984-3.543-12.204Zm-6.277 6.233 3.39-.984 2.362 8.136-3.39.984-2.362-8.136Zm-3.565 5.446 4.068-1.18 1.181 4.067-4.068 1.181-1.181-4.068Z" clip-rule="evenodd"/>
		<path fill="#BE6F41" fill-rule="evenodd" d="m270.402 153.589 1.078-69.109s-8.991-12.961-9.255-14.153c-.265-1.19-2.193-7.844-2.845-9.349-.653-1.505-1.77-2.99.202-3.107 1.972-.117 5.974 7.852 5.974 7.852s-2.446-6.628-2.599-8.898c-.154-2.27.335-6.061.335-6.061s.953-2.699 2.538-1.623c1.584 1.076.119 6.04.935 8.132a252.172 252.172 0 0 1 1.686 4.478s-.697-7.549-.336-9.654c.36-2.105 1.729-3.232 2.919-2.424 1.19.808.416 5.468.651 7.927.235 2.458 1.054 4.62 1.054 4.62s-.223-3.714 1.588-6.398c1.811-2.684 3.853-5.972 3.853-5.972s1.689-1.192 2.721.27c1.031 1.464-.276 2.995-1.807 6.37-1.531 3.376-1.893 4.879-2.017 7.956-.123 3.077 1.882 5.902 1.882 5.902s4.553-.714 5.613-3.782c1.061-3.069.949-4.125.949-4.125s-.165-.928.251-1.96c0 0 1.337-.354 2.471-.707 1.135-.353 2.471-.706 2.471-.706s.257 1.078.32 3.136-.696 11.621-4.278 16.933c-3.583 5.312-4.079 7.066-4.079 7.066l2.703 66.115" clip-rule="evenodd"/>
		<path fill="#A3ECDC" d="M101.883 54.056a2 2 0 0 0-2.278-1.677l-16.13 2.452c-.906.138-1.647 1.14-.92 1.695a6.91 6.91 0 0 1 3.35 4.937 6.92 6.92 0 0 1-5.8 7.882 6.92 6.92 0 0 1-7.878-5.803 6.907 6.907 0 0 1 1.587-5.546c.094-.11.18-.238.237-.37.309-.723-.463-1.292-1.24-1.174l-16.365 2.487a2 2 0 0 0-1.676 2.278l2.489 16.377c.118.777-.451 1.548-1.173 1.239a1.49 1.49 0 0 1-.371-.237 6.9 6.9 0 0 0-5.543-1.59 6.92 6.92 0 0 0-5.799 7.883 6.92 6.92 0 0 0 7.88 5.803 6.902 6.902 0 0 0 4.932-3.35c.556-.727 1.557.013 1.695.919l2.453 16.142a2 2 0 0 0 2.278 1.677l43.157-6.56a2.003 2.003 0 0 0 1.679-2.277l-2.49-16.377c-.118-.777.451-1.549 1.173-1.24.133.058.262.144.371.238a6.9 6.9 0 0 0 5.543 1.59 6.92 6.92 0 0 0 5.799-7.883 6.92 6.92 0 0 0-7.879-5.804 6.902 6.902 0 0 0-4.933 3.35c-.556.728-1.557-.013-1.695-.918l-2.453-16.143Z"/>
		<path fill="#14866D" fill-rule="evenodd" d="m84.378 73.658 3.922-.633 2.28 14.119-3.923.633-2.279-14.12Zm.911.657 2.353-.38 2.026 12.55-2.353.38-2.026-12.55Zm-.936 4.176-3.921.633 1.519 9.412 3.922-.633-1.52-9.412Zm-.657.91-2.353.38 1.266 7.844 2.353-.38-1.266-7.843ZM75.7 84.717l4.706-.76.76 4.707-4.707.76-.76-4.707Z" clip-rule="evenodd"/>
		<path fill="#D7A57A" fill-rule="evenodd" d="m71.904 157.893-2.968-38.875s-9.632-12.48-9.956-13.655c-.324-1.176-2.587-7.718-3.315-9.187-.728-1.469-1.917-2.895.045-3.111 1.962-.217 6.36 7.533 6.36 7.533s-2.777-6.49-3.045-8.748c-.269-2.259.026-6.067.026-6.067s.814-2.742 2.45-1.749c1.636.994.426 6.022 1.347 8.069.921 2.046 1.91 4.384 1.91 4.384s-1.079-7.499-.826-9.618c.253-2.12 1.562-3.314 2.79-2.568 1.23.746.694 5.436 1.053 7.878.36 2.442 1.287 4.558 1.287 4.558s-.411-3.695 1.26-6.467c1.67-2.77 3.542-6.156 3.542-6.156s1.625-1.275 2.729.132c1.103 1.408-.123 3.002-1.48 6.45-1.356 3.447-1.642 4.964-1.609 8.042.034 3.078 2.18 5.795 2.18 5.795.999-.209 1.997-.556 2.945-.898l4.878-.741c1.282.783 1.653 3.417.404 10.014-3.306 5.484-3.712 7.26-3.712 7.26l6.216 34.702" clip-rule="evenodd"/>
	</g>
</svg>
